modules/linea-weather/icons/weather-cloud-snowflake.svg

<svg xmlns="http://www.w3.org/2000/svg" width="64" height="64" viewBox="0 0 64 64"><path fill="none" stroke="#000" stroke-width="2" stroke-miterlimit="10" d="M18 40h-7C5.292 40 1 35.708 1 30s4.292-11 10-11h2C14.8 9.423 23.898 3 34 3c11.414 0 21 8.586 21 20 4.565 0 8 4.435 8 9s-3.435 8-8 8h-9"/><path fill="none" stroke="#000" stroke-width="2" stroke-miterlimit="10" d="M21 37l2 3-2 3m22 0l-2-3 2-3m-13 3h-7m18 0h-7m-5 11l3-2 3 2m0-22l-3 2-3-2m3 13v7m0-18v7m-5.657-7.899l-.707 3.535-3.535.707m15.556 15.556l.707-3.535 3.535-.707M30 38l-4.364-4.364m12.728 12.728L34 42m-11.899 3.657l3.535.707.707 3.535m15.556-15.556l-3.535-.707-.707-3.535M30 42l-4.364 4.364m12.728-12.728L34 38"/></svg>

<svg xmlns="http://www.w3.org/2000/svg" width="64" height="64" viewBox="0 0 64 64"><path fill="none" stroke="#000" stroke-width="2" stroke-miterlimit="10" d="M18 40h-7C5.292 40 1 35.708 1 30s4.292-11 10-11h2C14.8 9.423 23.898 3 34 3c11.414 0 21 8.586 21 20 4.565 0 8 4.435 8 9s-3.435 8-8 8h-9"/><path fill="none" stroke="#000" stroke-width="2" stroke-miterlimit="10" d="M21 37l2 3-2 3M43 43l-2-3 2-3M30 40h-7M41 40h-7M29 51l3-2 3 2M35 29l-3 2-3-2M32 42v7M32 31v7M26.343 30.101l-.707 3.535-3.535.707M37.657 49.899l.707-3.535 3.535-.707M30 38l-4.364-4.364M38.364 46.364L34 42M22.101 45.657l3.535.707.707 3.535M41.899 34.343l-3.535-.707-.707-3.535M30 42l-4.364 4.364M38.364 33.636L34 38"/></svg>
